!!!COM: Johannes Brahms
!!!CNT: Deutscher
!!!TXO: Deutsche
!!!OTL: Lied
!!!OPS: Op.3
!!!ONM: No. 6
!!!LYR: Eichendorff
!!!ONB: Original key: A Major
!!!ENC: Ayako Kataoka        
!!!EED: Leigh VanHandel
!!!YOR: C.F. Peters, Brahms Lieder fu2r eine Singstimme mit Klavierbegleitung, Band III, ausgabe fu2r tiefere Stimme
!!!ODT: 1852
!!NB: Vocal melody and text only encoded.
**kern	**silbe
*clefG2	*
*k[b-]	*
*M9/8	*
*MM[allegretto]	*
=1-	=1-
4r	.
8r	.
4r	.
8r	.
{(8e	{Lin-
8f)	|
8g	-des
=2	=2
4.g#	Rau-
8a	-schen
8r	.
8r	.
(8e	in
8f)	|
8gn	-den
=3	=3
4.g#	Wip-
8a}	-feln,}
8r	.
8r	.
{(8a	{Vo2g-
8bn)	|
8cc	-lein,
=4	=4
[4.cc	die
4cc]	|
8g	ihr
4g	fern-
8d	-ab
=5	=5
4e}	fliegt,}
8r	.
4r	.
8r	.
{(8e	{Bron-
8f)	|
8g	-nen
=6	=6
(4.g#	von
8a)	|
8r	.
8a	den
(8e	stil-
8f)	|
8gn	-len
=7	=7
4.g	Gip-
4a-}	-feln,}
8r	.
{4a-	{sagt,
8a-	wo
=8	=8
4b-	mei-
8b-	-ne
[4.dd-	Hei-
4dd-]	|
8b-	-mat
=9	=9
4.an}	liegt?}
4r	.
8r	.
{4b-	{sagt,
8g	wo
=10	=10
(4.f#	mei-
4g)	|
8g	-ne
4b-	Hei-
8g	-mat
=11	=11
[4.f#	liegt?
4f#]}	|}
8r	.
{(8g	{Heut
8fn)	|
8g	im
=12	=12
(4.g#	Traum
8a)	|
8r	.
8a	sah
(8e	ich
8f)	|
8gn	sie
=13	=13
4.g#	wie-
8a}	-der,}
8r	.
8r	.
{(8a	{und
8bn)	|
8cc	von
=14	=14
[4.cc	al-
4cc]	|
8g	-len
4g	Ber-
8d	-gen
=15	=15
[4.e	ging
4e]}	|}
8r	.
{(8e	{sol-
8f)	|
8g	-ches
=16	=16
4.g#	Gru2-
8a	-ssen
8r	.
8r	.
(8e	zu
8f)	|
8gn	mir
=17	=17
4.g	nie-
4a-}	-der,}
8r	.
{4a-	{dass
8a-	ich
=18	=18
4b-	an
8b-	zu
[4.dd-	wei-
4dd-]	|
8b-	-nen
=19	=19
4.an}	fing,}
4r	.
8r	.
{4b-	{dass
8g	ich
=20	=20
(4.f#	an
4g)	|
8g	zu
4b-	wei-
8g	-nen
=21	=21
[4.g-	fing.
4g-]}	|}
8r	.
{4g-	{Ach,
8g-	hier
=22	=22
*k[b-e-a-d-g-]	*
[4.g-	auf
4g-]	|
8g-	den
4f	frem-
8e	-den
=23	=23
4.e	Gip-
4f}	-feln:}
8r	.
{4f	{Men-
8f	-schen,
=24	=24
[4.g-	Quel-
4g-]	|
8g-	-len,
4f	Fels
8en	und
=25	=25
(4.e	Baum,
4f)}	|}
8r	.
4r	.
8r	.
=27	=27
4r	.
8r	.
4r	.
8r	.
{4dd-	{al-
8cc	-les
=28	=28
4dd-	ist
8a-	mir
4.f	wie
4.d-	ein
=29	=29
[4.e-	Traum!
4e-]}	|}
8r	.
4r	.
8r	.
=30	=30
4r	.
8r	.
{4.c	{wie
4.c	ein
=31	=31
[2.c	Traum!
8c]}	|}
8r	.
8r	.
=31	=31
*k[b-]	*
*MM[allegretto]	*
!! tempo indication: poco animato
4r	.
8r	.
4r	.
8r	.
{(8e	{Mun-
8f)	|
8g	-tre
=32	=32
4.g#	Vo2-
8a	-gel
8r	.
8r	.
(8e	in
8f)	|
8gn	den
=33	=33
4.g#	Wip-
8a}	-feln,}
8r	.
8r	.
{(8a	{ihr
8b-)	|
8cc	Ge-
=34	=34
[4.cc	-sel-
4cc]	|
8g	-len
4g	dort
8d	im
=35	=35
4e}	Tal,}
8r	.
4r	.
8r	.
{(8e	{gru2sst
8f)	|
8g	mir
=36	=36
(4.g#	von
8a)	|
8r	.
8a	den
(8gn	frem-
8a)	|
8b-	-den
=37	=37
4.bn	Gip-
4cc}	-feln}
8r	.
{4cc#	{mei-
8cc#	-ne
=38	=38
2.dd	Hei-
4.bb-	-mat
=39	=39
2.a	tau-
4.g	-send-
=40	=40
4f}	-mal!}
8r	.
{[4.c	{tau-
4c]	|
8c	-send-
=41	=41
[2.c	-mal!
4.c_	|
=42	=42
2.c_	|
8c]}	|}
8r	.
8r	.
*-	*-
